src/Pure/16/symbolic/emblems/emblem-important-symbolic.svg

<svg width="16" height="16" version="1.1" xmlns="http://www.w3.org/2000/svg">
 <defs>
  <style id="current-color-scheme" type="text/css">.ColorScheme-Text { color:#363636; }</style>
 </defs>
 <path d="m8 0c-4.423 0-8 3.576-8 8s3.577 8 8 8c4.424 0 8-3.576 8-8s-3.576-8-8-8zm0 1c3.866 0 7 3.134 7 7s-3.134 7-7 7-7-3.134-7-7 3.134-7 7-7zm0 2c-0.554 0-1 0.446-1 1v5c0 0.554 0.446 1 1 1s1-0.446 1-1v-5c0-0.554-0.446-1-1-1zm0 8c-1.3333 0-1.3333 2 0 2s1.3333-2 0-2z" style="fill:currentColor" class="ColorScheme-Text"/>
</svg>

<?xml version="1.0" encoding="UTF-8" standalone="no"?>
<svg
   width="16"
   height="16"
   version="1.1"
   id="svg1"
   sodipodi:docname="emblem-important-symbolic.svg"
   inkscape:version="1.4.2 (ebf0e940d0, 2025-05-08)"
   xmlns:inkscape="http://www.inkscape.org/namespaces/inkscape"
   xmlns:sodipodi="http://sodipodi.sourceforge.net/DTD/sodipodi-0.dtd"
   xmlns="http://www.w3.org/2000/svg"
   xmlns:svg="http://www.w3.org/2000/svg">
  <sodipodi:namedview
     id="namedview1"
     pagecolor="#ffffff"
     bordercolor="#000000"
     borderopacity="0.25"
     inkscape:showpageshadow="2"
     inkscape:pageopacity="0.0"
     inkscape:pagecheckerboard="0"
     inkscape:deskcolor="#d1d1d1"
     inkscape:zoom="49.6875"
     inkscape:cx="8"
     inkscape:cy="8"
     inkscape:window-width="1920"
     inkscape:window-height="1010"
     inkscape:window-x="0"
     inkscape:window-y="0"
     inkscape:window-maximized="1"
     inkscape:current-layer="svg1" />
  <defs
     id="defs1">
    <style
       id="current-color-scheme"
       type="text/css">.ColorScheme-Text { color:#363636; }
    </style>
  </defs>
  <path
     id="path1"
     style="fill:currentColor"
     class="ColorScheme-Text"
     d="M 8 0 C 3.577 0 0 3.576 0 8 C 0 12.424 3.577 16 8 16 C 12.424 16 16 12.424 16 8 C 16 3.576 12.424 0 8 0 z M 8 1 C 11.866 1 15 4.134 15 8 C 15 11.866 11.866 15 8 15 C 4.134 15 1 11.866 1 8 C 1 4.134 4.134 1 8 1 z M 8 3 C 7.446 3 7 3.446 7 4 L 7 9 C 7 9.554 7.446 10 8 10 C 8.554 10 9 9.554 9 9 L 9 4 C 9 3.446 8.554 3 8 3 z M 8 11 C 6.6667 11 6.6667 13 8 13 C 9.3333 13 9.3333 11 8 11 z " />
</svg>
